X:7899
T:Midge's dance
C:F. X. Chwatal
Z:Transcribed by Frank Nordberg - http://www.musicaviva.com
F:http://abc.musicaviva.com/tunes/chwatal-f-x/chwatal-midges-dance/chwatal-midges-dance.abc
M:3/4
L:1/8
K:F
"^Allegretto"AB|c2c2fe|d2dcBA|G2G2c2|A4AB|
c2c2fe|d2dcBA|G2G2c2|F4A=B|
c2G2A=B|c2G2Gc|e2dc=Bd|c3_B AB|
c2c2fe|d2dcBA|G2G2c2|F4c>a|
a2gz c>g|g2fz c>f|ecdefg|a2c'2b>a|
a2gz b>a|g2fz a>g|fed'c'bg|f4z2|]
W:
W:
W:  From Musica Viva - http://www.musicaviva.com
W:  the Internet center for free sheet music downloads.
